X:0144
T:March de Gen's d' Armes.
M:2/4
L:1/8
Q:1/2=60
I: :: :: :: ::
Z:Jack Campin * www.campin.me.uk * 2009
K:G
G2  BG       |d2BA|Ge (d/c/B/A/)|GG G2:|
Dc  c(B/c/)  |AAA2|GB  B(A/B/)  |GG G2:|
ec (c/B/c/d/)|ecc2|ec (c/B/c/d/)|e2 c2:|
dB (B/A/B/c/)|dBB2|dB (d/c/B/A/)|A2 G2 |
Dc  c(B/c/)  |AAA2|GB  BA/B/    |GG G2:|
<end>
<start>
